<?xml version="1.0" encoding="UTF-8"?>
<map version="1.10" tiledversion="1.12.2" orientation="orthogonal" renderorder="right-down" width="20" height="12" tilewidth="16" tileheight="16" infinite="0" nextlayerid="3" nextobjectid="1">
 <tileset firstgid="1" source="uiFondoMenu.tsx"/>
 <tileset firstgid="257" source="otrasLetras.tsx"/>
 <layer id="1" name="fondo" width="20" height="12">
  <data encoding="csv">
0,0,0,0,0,0,0,0,0,0,0,0,0,0,0,0,0,0,0,0,
0,137,138,2147483786,10,10,10,10,10,138,139,10,10,10,10,10,138,2147483786,2147483785,0,
0,169,170,170,170,170,170,170,170,170,170,170,170,170,170,170,170,170,172,0,
0,169,154,155,155,155,155,155,155,155,155,155,155,155,155,155,155,155,172,0,
0,169,154,154,154,154,154,154,154,154,154,154,154,154,155,171,171,171,172,0,
0,169,170,170,170,170,170,170,170,170,170,170,170,170,171,187,187,187,172,0,
0,169,186,186,186,186,186,186,186,186,186,186,186,186,187,186,187,171,172,0,
0,169,154,154,154,154,154,154,154,154,154,154,154,154,154,186,187,187,172,0,
0,169,170,170,170,170,170,170,170,170,170,170,170,170,170,170,186,187,172,0,
0,169,186,186,186,186,186,186,186,186,186,186,186,186,186,186,186,187,172,0,
0,201,202,202,202,202,202,202,202,202,202,202,202,202,202,202,202,202,204,0,
0,0,0,0,0,0,0,0,0,0,0,0,0,0,0,0,0,0,0,0
</data>
 </layer>
 <layer id="2" name="letras y detalles" width="20" height="12">
  <data encoding="csv">
0,0,0,0,0,0,0,0,0,0,0,0,0,0,0,0,0,0,0,0,
0,0,0,0,0,0,0,0,0,0,0,0,0,0,0,0,0,0,0,0,
0,0,73,74,0,0,0,0,0,109,110,0,0,0,0,0,73,74,0,0,
0,0,89,90,0,0,0,0,0,125,126,0,0,0,0,0,89,90,0,0,
0,0,0,0,0,0,0,0,0,0,0,0,0,0,0,0,0,0,0,0,
0,0,109,110,0,0,0,0,263,257,269,261,0,0,0,0,109,110,0,0,
0,0,125,126,0,0,0,0,266,278,261,274,0,0,0,0,125,126,0,0,
0,0,0,0,0,0,0,0,0,0,0,0,0,0,0,0,0,0,0,0,
0,0,73,74,0,0,0,0,0,109,110,0,0,0,0,0,73,74,0,0,
0,0,89,90,0,0,0,0,0,125,126,0,0,0,0,0,89,90,0,0,
0,0,0,0,0,0,0,0,0,0,0,0,0,0,0,0,0,0,0,0,
0,0,0,0,0,0,0,0,0,0,0,0,0,0,0,0,0,0,0,0
</data>
 </layer>
</map>
