<?xml version="1.0" encoding="UTF-8"?>
<map version="1.10" tiledversion="1.12.2" orientation="orthogonal" renderorder="right-down" width="20" height="12" tilewidth="16" tileheight="16" infinite="0" nextlayerid="5" nextobjectid="4">
 <tileset firstgid="1" source="uiFondoMenu.tsx"/>
 <tileset firstgid="257" source="otrasLetras.tsx"/>
 <layer id="1" name="fondo" width="20" height="12">
  <data encoding="csv">
0,0,0,0,0,0,0,0,0,0,0,0,0,0,0,0,0,0,0,0,
0,137,138,2147483786,10,10,10,10,10,138,139,10,10,10,10,10,138,2147483786,2147483785,0,
0,169,170,170,170,170,170,170,170,170,170,170,170,170,170,170,170,170,172,0,
0,169,154,155,155,155,155,155,155,155,155,155,155,155,155,155,155,155,172,0,
0,169,154,154,154,154,154,154,154,154,154,154,154,154,155,171,171,171,172,0,
0,169,170,170,170,170,170,170,170,170,170,170,170,170,171,187,187,187,172,0,
0,169,186,186,186,186,186,186,186,186,186,186,186,186,187,186,187,171,172,0,
0,169,154,154,154,154,154,154,154,154,154,154,154,154,154,186,187,187,172,0,
0,169,170,170,170,170,170,170,170,170,170,170,170,170,170,170,186,187,172,0,
0,169,186,186,186,186,186,186,186,186,186,186,186,186,186,186,186,187,172,0,
0,201,202,202,202,202,202,202,202,202,202,202,202,202,202,202,202,202,204,0,
0,0,0,0,0,0,0,0,0,0,0,0,0,0,0,0,0,0,0,0
</data>
 </layer>
 <layer id="2" name="botones" width="20" height="12">
  <data encoding="csv">
0,0,0,0,0,0,0,0,0,0,0,0,0,0,0,0,0,0,0,0,
0,0,0,0,0,0,0,0,0,0,0,0,0,0,0,0,0,0,0,0,
0,0,0,0,0,0,0,0,0,0,0,0,0,0,0,0,0,0,0,0,
0,0,0,0,0,0,0,0,0,0,0,0,0,0,0,0,0,0,0,0,
0,0,0,0,0,0,0,0,0,0,0,0,0,0,0,0,0,0,0,0,
0,0,0,0,0,0,0,0,0,0,0,0,0,0,0,0,0,0,0,0,
0,0,0,161,162,163,164,0,129,130,131,132,0,193,194,195,196,0,0,0,
0,0,0,177,178,179,180,0,145,146,147,148,0,209,210,211,212,0,0,0,
0,0,0,0,0,0,0,0,0,0,0,0,0,0,0,0,0,0,0,0,
0,0,0,0,0,0,0,0,0,0,0,0,0,0,0,0,0,0,0,0,
0,0,0,0,0,0,0,0,0,0,0,0,0,0,0,0,0,0,0,0,
0,0,0,0,0,0,0,0,0,0,0,0,0,0,0,0,0,0,0,0
</data>
 </layer>
 <layer id="3" name="palabras y detalles" width="20" height="12">
  <data encoding="csv">
0,0,0,0,0,0,0,0,0,0,0,0,0,0,0,0,0,0,0,0,
0,0,0,0,0,0,0,0,0,0,0,0,0,0,0,0,0,0,0,0,
0,0,0,0,0,0,0,0,0,0,0,0,0,0,0,0,0,0,0,0,
0,0,0,0,0,262,274,257,263,269,261,270,276,275,0,0,0,0,0,0,
0,0,0,0,0,0,0,271,262,0,0,0,281,271,277,0,0,0,0,0,
0,0,0,0,0,0,0,0,0,0,0,0,0,0,0,0,0,0,0,0,
0,0,0,0,0,0,0,0,0,0,0,0,0,0,0,0,0,0,0,0,
0,0,0,0,0,0,0,0,0,0,0,0,0,0,0,0,0,0,0,0,
0,0,0,0,107,108,0,0,0,105,106,0,0,0,109,110,0,0,0,0,
0,0,0,0,123,124,0,0,0,121,122,0,0,0,125,126,0,0,0,0,
0,0,0,0,0,0,0,0,0,0,0,0,0,0,0,0,0,0,0,0,
0,0,0,0,0,0,0,0,0,0,0,0,0,0,0,0,0,0,0,0
</data>
 </layer>
 <objectgroup id="4" name="botonesObjeto">
  <object id="1" name="settings" x="53.6667" y="105.333" width="52.6667" height="16"/>
  <object id="2" name="play" x="134.333" y="104.333" width="52.6667" height="18.3333"/>
  <object id="3" name="exit" x="214.333" y="106.667" width="50.6667" height="13.6667"/>
 </objectgroup>
</map>
